X:1
T:Gott der Vater
T:Gott der Vater
T:Seth Calvisius
T:Source : Harmonia-Cantionum Ecclesiasticarum---Leipzig---F.Schnelboltz---1597. Editor : André Vierendeels (06/12/14).
C:Seth Calvisius
%%score [ 1 [ 2 3 ] 4 ]
L:1/8
Q:1/4=120
M:2/2
K:C
V:1 treble nm="Cantus" snm="C"
V:2 treble-8 nm="Tenor 1" snm="T 1"
V:3 treble-8 nm="Tenor 2" snm="T 2"
V:4 bass nm="Bassus" snm="B"
V:1
 G4 G4 | A4 B4 | c4 c4 | B4 A4 | c4 G4 | E4 F4 | E4 D4 | C8 | G4 G4 | A4 B4 | c4 c4 | B4 A4 | %12
w: Gott der|Va- ter|wohn uns|bey und|las uns|nicht ver-|der- *|ben,|mach uns|al- ler|Sün- den|frey und|
w: Je- sus|Chri- stus|wohn uns|bey *|||||||||
w: Der hei-|lig Geist|wohn uns|bey *|||||||||
 c4 G4 | E4 F4 | E4 D4 | C8 |: C4 D4 | E4 E4 | C4 D4 | E4 c4 | B4 c4 | d6 c2 | B4 A4 | G4 G4 | %24
w: hilff uns|se- lig|ster- *|ben,|für dem|Teuf- fel|uns be-|wahr, halt|uns- bey|fe- sten|Glau- *|ben, und|
w: ||||||||||||
w: ||||||||||||
 G4 c4 | B4 G4 | A4 F4 | E4 D4 | E4 ^F4 |"^-natural" G6 F2 | E4 D4 | C8 | C4 D4 | E4 E4 | C4 D4 | %35
w: auff dich|las uns|ba- *|wen, aus|her- zen|grund ver-|tra- *|wen,|dir uns|las- sen|gantz und|
w: |||||||||||
w: |||||||||||
 E4 c4 | B4 c4 | d6 c2 | B4 A4 | G4 G4 | G4 c4 | B4 G4 | A4 F4 | E4 D4 | E4 ^F4 | %45
w: gar, mit|al- len|rech- ten|Chri- *|sten ent-|flie- hen|des Teuf-|fels li-|sten, mit|waf- fen|
w: ||||||||||
w: ||||||||||
"^-natural" G6 F2 | E4 D4 | C8 | C4 D4 | E4 E4 | C4 D4 | E4 F4 | G4 G4 | E4 F4 | E4 D4 | C8 |] %56
w: Gotts uns|fri- *|sten,|a- men,|a- men,|das sey|war, so|sing'n- wir|al- le-|lu- *|ia.|
w: |||||||||||
w: |||||||||||
V:2
 e4 e4 | ^f4 g4 | g4 g4 | g4 f4 | e4 d4 | c4 c4- | c4 B4 | c8 | f4 f4 | ^f4 g4 | g4 g4 | g4 f4 | %12
w: Gott der|Va- ter|wohn uns|bey, und|las uns|nicht ver-|* der|ben,|mach uns|al- ler|Sün- den|frey und|
 e4 d4 | c4 c4- | c4 B4 | c8 |: c4 B4 | c4 G4 | A4 B4 | c4 e4 | g4 g4 | g6 e2 | g4 ^f4 | g4 d4 | %24
w: hilff uns|se- lig|* ster-|ben,|fûr dem|Teuf- fel|uns be-|wahr, halt|uns bey|fe- sten|Glau- *|ben, und|
 e4 g4 | g4 d4 | f4 d4 | ^c4 d4 | c4 d4 | e6 c2 | c4 B4 | c8 | c4 B4 | c4 G4 | A4 B4 | c4 e4 | %36
w: auff dich|las uns|ba- *|wen, aus|her- zen|grund ver-|tra- *|wen,|dir uns|las- sen|gantz und|gar, mit|
 g4 g4 | g6 e2 | g4 f4 | g4 d4 | e4 g4 | g4 d4 | f4 d4 | ^c4 d4 | ^c4 d4 | e6 c2 | c4 B4 | c8 | %48
w: al- len|rech- ten|Chri- *|sten ent-|flie- hen|des Teuf-|fels li-|sten, mit|waf- fen|Gotts uns|fri- *|sten,|
 c4 B4 | c4 G4 | A4 B4 | c4 c4 | e4 d4 | c6 c2 | c4 B4 | c8 |] %56
w: a- men,|a- men,|das sey|war, so|sing'n wir-|al- le-|lu- *|ia.|
V:3
 c4 c4 | c4 d4 | e4 e4 | d4 d4 | G4 G4 | A4 A4 | G8 | G8 | c4 c4 | c4 d4 | e4 e4 | d4 d4 | G4 G4 | %13
w: Gott der|Va- ter|wohn uns|bey, und|las uns|nicht ver-|der-|ben,|mach uns|al- ler|Sün- den|frey, und|hilff uns|
 A4 A4 | G8 | G8 |: A4 ^F4 | G6 E2 | E4 ^F4 | G4 c4 | d4 c4 | B6 c2 | d8 | d4 B4 | B4 c4 | d4 B4 | %26
w: se- lig|ster-|ben,|für dem|Teuf- fel|uns be-|wahr, halt|uns bey|fe- sten|Glau-|ben, und|auff dich|las uns|
 A8 | A4 A4 | A4 A4 | c6 A2 | G8 | G8 | A4 ^F4 | G6 E2 | E4 ^F4 | G4 c4 | d4 c4 | B6 c2 | d8 | %39
w: ba-|wen, aus|her- zen|grund ver-|ta-|wen,|dir uns|las- sen|gantz und|gar, mit|al- len|rech- ten|Chri-|
 d4 B4 | B4 c4 | d4 B4 | A4 A4 | A4 A4 | A4 A4 | c6 A2 | G8 | G8 | A4 ^F4 | G6 E2 | E4 F4 | G4 A4 | %52
w: sten ent-|flie- hen|des Teuf-|fels- li-|sten, mit|waf- fen|Gotts uns|fri-|sten,|a- men,|a- men,|das sey|war, so|
 c4 B4 | A4 A4 | G8 | G8 |] %56
w: sing'n wir|al- le-|lu-|ia|
V:4
 C,4 C,4 | A,,4 G,,4 | C,4 C,4 | G,,4 D,4 | C,4 B,,4 | A,,4 F,,4 | C,4 G,,4 | C,8 | C,4 C,4 | %9
w: Gott der|Va- ter|wohn uns|bey, und|las uns|nicht ver-|der- *|ben,|mach uns|
 A,,4 G,,4 | C,4 C,4 | G,,4 D,4 | C,4 B,,4 | A,,4 F,,4 | C,4 G,,4 | C,8 |: A,,4 D,4 | C,4 C,4 | %18
w: al- ler|Sün- den|frey, und|hilff uns|se- lig|ster- *|ben,|für dem|Teuf- fel|
 A,,4 D,4 | C,4 C,4 | G,4 C,4 | G,6 A,2 | G,4 D,4 | G,4 G,4 | E,4 C,4 | G,4 G,,4 | D,8 | A,,4 D,4 | %28
w: uns be-|wahr, halt|uns bey|fe- sten|Glau- *|ben, und|auff dich|las uns|ba-|wen, aus|
 A,,4 D,4 | C,6 F,,2 | C,4 G,,4 | C,8 | A,,4 D,4 | C,4 C,4 | A,,4 D,4 | C,4 C,4 | G,4 C,4 | %37
w: her- zen|grund ver-|tra- *|wen,|dir uns|las- sen|gantz und|gar, mit|al- len|
 G,6 A,2 | G,4 D,4 | G,4 G,4 | E,4 C,4 | G,4 G,,4 | D,4 D,4 | A,,4 D,4 | A,,4 D,4 | C,6 F,,2 | %46
w: rech- ten,|Chri- *|sten ent-|flie- hen|des Teuf-|fels li-|sten, mit|waf- fen|Gotts und|
 C,4 G,,4 | C,8 | A,,4 D,4 | C,4 C,4 | A,,4 D,4 | C,4 F,,4 | C,4 G,,4 | A,,4 F,,4 | C,4 G,,4 | %55
w: fri- *|sten,|a- men,|a- men,|des- a|war, so|sing'n wir|al- le-|lu- *|
 C,8 |] %56
w: ia.|

